icons/icn_vista.svg

<svg width="24" xmlns="http://www.w3.org/2000/svg" height="24" id="screenshot-31fe8dfc-fa8e-809b-8006-934cf4313246" viewBox="0 0 24 24" xmlns:xlink="http://www.w3.org/1999/xlink" fill="none" version="1.1"><g id="shape-31fe8dfc-fa8e-809b-8006-934cf4313246"><g class="frame-container-wrapper"><g class="frame-container-blur"><g class="frame-container-shadows"><g fill="none"><g class="fills" id="fills-31fe8dfc-fa8e-809b-8006-934cf4313246"><rect rx="0" ry="0" x="0" y="0" width="24" height="24.000000000000455" transform="matrix(1, 0, 0, 1, 0, 0)" class="frame-background"/></g><g class="frame-children"><g id="shape-31fe8dfc-fa8e-809b-8006-934e90789fca" width="24" height="24" version="1.1" rx="0" ry="0" style="fill: rgb(0, 0, 0);"><g id="shape-31fe8dfc-fa8e-809b-8006-934e907e8512" style="opacity: 1;"><g class="fills" id="fills-31fe8dfc-fa8e-809b-8006-934e907e8512"><path d="M13.929736137390137,2.0018310546875C9.479296684265137,2.0018310546875,5.861376762390137,5.646728515625,5.861376762390137,10.1209716796875C5.861376762390137,12.24560546875,6.677783012390137,14.1856689453125,8.011279106140137,15.63671875L2.517382860183716,20.44921875C2.214648485183716,20.716796875,2.185107469558716,21.1785888671875,2.450732469558716,21.482177734375C2.718310594558716,21.785400390625,3.180712938308716,21.8148193359375,3.484179735183716,21.5487060546875L9.107470512390137,16.6309814453125C10.453661918640137,17.6463623046875,12.122118949890137,18.2498779296875,13.929736137390137,18.2498779296875C18.379932403564453,18.2498779296875,21.998096466064453,14.5953369140625,21.998096466064453,10.1209716796875C21.998096466064453,5.646728515625,18.379932403564453,2.0018310546875,13.929736137390137,2.0018310546875ZM13.929736137390137,3.552490234375C17.534717559814453,3.552490234375,20.447071075439453,6.47900390625,20.447071075439453,10.1209716796875C20.447071075439453,13.7630615234375,17.534717559814453,16.69921875,13.929736137390137,16.69921875C10.324511528015137,16.69921875,7.412402153015137,13.7630615234375,7.412402153015137,10.1209716796875C7.412402153015137,6.47900390625,10.324511528015137,3.552490234375,13.929736137390137,3.552490234375ZM11.265673637390137,6.0037841796875C10.319872856140137,6.0037841796875,9.537402153015137,6.784423828125,9.537402153015137,7.730712890625L9.537402153015137,12.2696533203125C9.537402153015137,13.2154541015625,10.319872856140137,13.9979248046875,11.265673637390137,13.9979248046875L16.726367950439453,13.9979248046875C17.672412872314453,13.9979248046875,18.454883575439453,13.2154541015625,18.454883575439453,12.2696533203125L18.454883575439453,7.730712890625C18.454883575439453,6.784423828125,17.672412872314453,6.0037841796875,16.726367950439453,6.0037841796875ZM11.265673637390137,7.4727783203125L16.726367950439453,7.4727783203125C16.880664825439453,7.4727783203125,16.978321075439453,7.576171875,16.978321075439453,7.730712890625L16.978321075439453,9.3026123046875L11.005419731140137,9.3026123046875L11.005419731140137,7.730712890625C11.005419731140137,7.576171875,11.111620903015137,7.4727783203125,11.265673637390137,7.4727783203125ZM11.005419731140137,10.763671875L16.978321075439453,10.763671875L16.978321075439453,12.2696533203125C16.978321075439453,12.4241943359375,16.880664825439453,12.5294189453125,16.726367950439453,12.5294189453125L11.265673637390137,12.5294189453125C11.111620903015137,12.5294189453125,11.005419731140137,12.4241943359375,11.005419731140137,12.2696533203125Z" style="display: inline; stroke-linecap: round; stroke-linejoin: bevel; fill: rgb(0, 0, 0); fill-opacity: 1;"/></g></g></g></g></g></g></g></g></g></svg>

<svg fill="none" viewBox="0 0 24 24"><g class="frame-container-wrapper"><g class="frame-container-blur"><g class="frame-container-shadows"><g class="fills"><rect width="24" height="24" class="frame-background" rx="0" ry="0"/></g><g class="frame-children"><path fill="#000" d="M13.9297 2.0018c-4.4504 0-8.0683 3.645-8.0683 8.1192 0 2.1246.8164 4.0647 2.1499 5.5157l-5.494 4.8125a.734.734 0 0 0-.0666 1.033.7336.7336 0 0 0 1.0335.0665l5.6233-4.9177c1.3462 1.0154 3.0146 1.6189 4.8222 1.6189 4.4502 0 8.0684-3.6546 8.0684-8.129 0-4.4742-3.6182-8.119-8.0684-8.119Zm0 1.5507c3.605 0 6.5174 2.9265 6.5174 6.5685 0 3.642-2.9124 6.5782-6.5174 6.5782-3.6052 0-6.5173-2.9361-6.5173-6.5782 0-3.642 2.9121-6.5685 6.5173-6.5685Zm-2.664 2.4513c-.9458 0-1.7283.7806-1.7283 1.727v4.5389c0 .9458.7825 1.7282 1.7283 1.7282h5.4607c.946 0 1.7285-.7824 1.7285-1.7282v-4.539c0-.9463-.7825-1.727-1.7285-1.727Zm0 1.469h5.4607c.1543 0 .252.1034.252.258v1.5718h-5.973V7.7307c0-.1545.1062-.258.2603-.258Zm-.2603 3.2909h5.973v1.506c0 .1545-.0977.2597-.252.2597h-5.4607c-.154 0-.2603-.1052-.2603-.2597Z" class="fills"/></g></g></g></g></svg>
